X:5
T:Johnny, Don't Get Drunk
R:reel
M:C|
K:D
"D"fa2f a2g2| "A7"fdec "D"d4| "G"BABc dBAG| "A7"F2E2 E4|
"D"fa2f a2g2| "A7"fdec "D"d4| "G"BABc d2g2| "A7"fdec "D"d4 :|
|:\
"D"F2A2 A4| FA2F A4| "G"BABc dBAG| "A7"F2E2 E4|
"D"FA2F A4| "G"BABc d4| BABc d2g2| "A7"fdec "D"d4 :|
%%newpage
%%text 3
